storage/app/icons/phosphoricons/regular/mouse-right-click.svg

<svg xmlns="http://www.w3.org/2000/svg" fill="currentColor" viewBox="0 0 256 256"><path d="M144 16h-32a64.07 64.07 0 0 0-64 64v96a64.07 64.07 0 0 0 64 64h32a64.07 64.07 0 0 0 64-64V80a64.07 64.07 0 0 0-64-64m-8 67.31 39.49-39.49A48.5 48.5 0 0 1 186.66 58l-46 46H136Zm55.78-7.78c.14 1.47.22 3 .22 4.47v24h-28.69Zm-30.37-40.25L136 60.69V32h8a47.7 47.7 0 0 1 17.41 3.28M112 32h8v72H64V80a48.05 48.05 0 0 1 48-48m32 192h-32a48.05 48.05 0 0 1-48-48v-56h128v56a48.05 48.05 0 0 1-48 48"/></svg>

<svg xmlns="http://www.w3.org/2000/svg" viewBox="0 0 256 256" fill="currentColor"><path d="M144,16H112A64.07,64.07,0,0,0,48,80v96a64.07,64.07,0,0,0,64,64h32a64.07,64.07,0,0,0,64-64V80A64.07,64.07,0,0,0,144,16Zm-8,67.31,39.49-39.49A48.49,48.49,0,0,1,186.66,58l-46,46H136Zm55.78-7.78c.14,1.47.22,3,.22,4.47v24H163.31ZM161.41,35.28,136,60.69V32h8A47.73,47.73,0,0,1,161.41,35.28ZM112,32h8v72H64V80A48.05,48.05,0,0,1,112,32Zm32,192H112a48.05,48.05,0,0,1-48-48V120H192v56A48.05,48.05,0,0,1,144,224Z"/></svg>
